Origami/24x24/apps/ms-word.svg

<svg width="24" height="24" version="1" xmlns="http://www.w3.org/2000/svg">
 <path d="m4.9225974 4.504464c-1.9626667 0.0462315-3.3974556 2.0848144-2.7759244 3.9450726l3.4909057 10.961136a2.0005847 1.9981 0 0 0 0 2e-3c0.3904887 1.225054 1.5740897 2.024803 2.7036449 2.083748 1.1295552 0.05895 2.3886684-0.613347 2.9048554-1.791087a2.0005847 1.9981 0 0 0 0 -2e-3l0.752098-1.716945 0.752097 1.716945a2.0005847 1.9981 0 0 0 0 2e-3c0.516187 1.177741 1.775301 1.850031 2.904856 1.791087 1.129555-0.05895 2.313157-0.858693 2.703645-2.083748a2.0005847 1.9981 0 0 0 0 -2e-3l3.494813-10.968941v-0.00195c0.261331-0.7953139 0.168172-1.7571542-0.242235-2.4525017-0.41072-0.6958788-1.034464-1.1274553-1.699546-1.338437-0.665081-0.2109819-1.425038-0.2184744-2.162525 0.1131622-0.737486 0.3316367-1.369892 1.0643515-1.615544 1.8652272l-1.080286 3.387065-0.3067-0.7023865a2.0005847 1.9981 0 0 0 0 -0.00195c-0.493422-1.1246426-1.659721-1.7949896-2.748575-1.7949896-1.088855 0-2.2551538 0.670347-2.7485757 1.7949885a2.0005847 1.9981 0 0 0 0 0.00195l-0.3066995 0.7023876-1.0783324-3.3792607c-0.3867713-1.280244-1.6015772-2.1604475-2.9400184-2.1305733z" style="opacity:.2"/>
 <path d="m4.9225974 4.0041901c-1.9626667 0.0462315-3.3974556 2.0848144-2.7759244 3.9450726l3.4909057 10.961136a2.0005847 1.9981 0 0 0 0 2e-3c0.3904887 1.225054 1.5740897 2.024803 2.7036449 2.083748 1.1295552 0.05895 2.3886684-0.613347 2.9048554-1.791087a2.0005847 1.9981 0 0 0 0 -2e-3l0.752098-1.716945 0.752097 1.716945a2.0005847 1.9981 0 0 0 0 2e-3c0.516187 1.177741 1.775301 1.850031 2.904856 1.791087 1.129555-0.05895 2.313157-0.858693 2.703645-2.083748a2.0005847 1.9981 0 0 0 0 -2e-3l3.494813-10.968941v-0.00195c0.261331-0.7953139 0.168172-1.7571542-0.242235-2.4525017-0.41072-0.6958788-1.034464-1.1274553-1.699546-1.338437-0.665081-0.2109819-1.425038-0.2184744-2.162525 0.1131622-0.737486 0.3316367-1.369892 1.0643515-1.615544 1.8652272l-1.080286 3.3870653-0.3067-0.7023868a2.0005847 1.9981 0 0 0 0 -0.00195c-0.493422-1.1246426-1.659721-1.7949896-2.748575-1.7949896-1.088855 0-2.2551538 0.670347-2.7485757 1.7949885a2.0005847 1.9981 0 0 0 0 0.00195l-0.3066995 0.7023879-1.0783324-3.379261c-0.3867713-1.280244-1.6015772-2.1604475-2.9400184-2.1305733z" style="fill:#37a0f2"/>
 <path d="m5 7.5001837 3.5 10.999999 3.5-8.000204 3.5 8.000204 3.5-10.999999" style="fill:none;opacity:.2;stroke-linecap:round;stroke-linejoin:round;stroke-width:2;stroke:#000000"/>
 <path d="m4.9726562 5.9863281a1.0001 1.0001 0 0 0 -0.9257812 1.3164063l3.5 11a1.0001 1.0001 0 0 0 1.8691406 0.09766l2.5839844-5.906253 2.583984 5.90625a1.0001 1.0001 0 0 0 1.869141 -0.09766l3.5-11a1.0001 1.0001 0 1 0 -1.90625 -0.6054658l-2.695313 8.4707034-2.435546-5.5683596a1.0001 1.0001 0 0 0 -1.832032 0l-2.4355465 5.5683596-2.6953125-8.4707034a1.0001 1.0001 0 0 0 -0.9804688 -0.7109375z" style="fill:#ffffff"/>
 <path d="m18.857422 4.0019531c-0.36531 0.0132087-0.738679 0.0939474-1.107422 0.2597657-0.737486 0.3316366-1.371536 1.0643586-1.617188 1.8652343l-1.080078 3.3867188-0.30664-0.7011719a2.0005847 1.9981 0 0 0 0 -0.0019531c-0.493422-1.1246426-1.659193-1.7949219-2.748047-1.7949219-1.088855 0-2.2546251 0.6702804-2.748047 1.7949219a2.0005847 1.9981 0 0 0 0 0.0019531l-0.3066406 0.7011719-1.078125-3.3789063c-0.3867713-1.280244-1.6029651-2.1607336-2.9414063-2.1308594h-0.0019531c-1.7528322 0.0412888-3.07253 1.6724359-2.8945312 3.3457032 0.1033901-1.4829534 1.3181661-2.8085712 2.8945312-2.8457032h0.0019531c1.3384412-0.0298741 2.554635 0.8506154 2.9414063 2.1308594l1.078125 3.3789064 0.3066406-0.701172a2.0005847 1.9981 0 0 0 0 -0.0019531c0.4934219-1.1246415 1.659192-1.7949219 2.748047-1.7949219 1.088854 0 2.254625 0.6702793 2.748047 1.7949219a2.0005847 1.9981 0 0 0 0 0.0019531l0.30664 0.701172 1.080078-3.3867189c0.245652-0.8008757 0.879702-1.5335977 1.617188-1.8652343 0.737487-0.3316366 1.497028-0.3242632 2.162109-0.1132813 0.665082 0.2109817 1.288499 0.6420118 1.699219 1.3378906 0.205204 0.3476738 0.331123 0.7626604 0.373047 1.1894531 0.033499-0.5949652-0.088007-1.2065142-0.373047-1.6894531-0.41072-0.6958788-1.034137-1.1269089-1.699219-1.3378906-0.33254-0.105491-0.689377-0.1596931-1.054687-0.1464844z" style="fill:#ffffff;opacity:.2"/>
</svg>

<svg xmlns="http://www.w3.org/2000/svg" width="24" height="24" version="1">
 <path style="opacity:0.2" d="M 4.9225974,4.504464 C 2.9599307,4.5506955 1.5251418,6.5892784 2.146673,8.4495366 L 5.6375787,19.410673 a 2.0005847,1.9981 0 0 0 0,0.002 c 0.3904887,1.225054 1.5740897,2.024803 2.7036449,2.083748 1.1295552,0.05895 2.3886684,-0.613347 2.9048554,-1.791087 a 2.0005847,1.9981 0 0 0 0,-0.002 l 0.752098,-1.716945 0.752097,1.716945 a 2.0005847,1.9981 0 0 0 0,0.002 c 0.516187,1.177741 1.775301,1.850031 2.904856,1.791087 1.129555,-0.05895 2.313157,-0.858693 2.703645,-2.083748 a 2.0005847,1.9981 0 0 0 0,-0.002 L 21.853588,8.4417323 v -0.00195 C 22.114919,7.6444684 22.02176,6.6826281 21.611353,5.9872806 21.200633,5.2914018 20.576889,4.8598253 19.911807,4.6488436 19.246726,4.4378617 18.486769,4.4303692 17.749282,4.7620058 17.011796,5.0936425 16.37939,5.8263573 16.133738,6.627233 l -1.080286,3.387065 -0.3067,-0.7023865 a 2.0005847,1.9981 0 0 0 0,-0.00195 C 14.25333,8.1853189 13.087031,7.5149719 11.998177,7.5149719 c -1.088855,0 -2.2551538,0.670347 -2.7485757,1.7949885 a 2.0005847,1.9981 0 0 0 0,0.00195 L 8.9429018,10.014298 7.8645694,6.6350373 C 7.4777981,5.3547933 6.2629922,4.4745898 4.924551,4.504464 Z"/>
 <path style="fill:#37a0f2" d="M 4.9225974,4.0041901 C 2.9599307,4.0504216 1.5251418,6.0890045 2.146673,7.9492627 L 5.6375787,18.910399 a 2.0005847,1.9981 0 0 0 0,0.002 c 0.3904887,1.225054 1.5740897,2.024803 2.7036449,2.083748 1.1295552,0.05895 2.3886684,-0.613347 2.9048554,-1.791087 a 2.0005847,1.9981 0 0 0 0,-0.002 l 0.752098,-1.716945 0.752097,1.716945 a 2.0005847,1.9981 0 0 0 0,0.002 c 0.516187,1.177741 1.775301,1.850031 2.904856,1.791087 1.129555,-0.05895 2.313157,-0.858693 2.703645,-2.083748 a 2.0005847,1.9981 0 0 0 0,-0.002 L 21.853588,7.9414584 v -0.00195 C 22.114919,7.1441945 22.02176,6.1823542 21.611353,5.4870067 21.200633,4.7911279 20.576889,4.3595514 19.911807,4.1485697 19.246726,3.9375878 18.486769,3.9300953 17.749282,4.2617319 17.011796,4.5933686 16.37939,5.3260834 16.133738,6.1269591 l -1.080286,3.3870653 -0.3067,-0.7023868 a 2.0005847,1.9981 0 0 0 0,-0.00195 C 14.25333,7.685045 13.087031,7.014698 11.998177,7.014698 c -1.088855,0 -2.2551538,0.670347 -2.7485757,1.7949885 a 2.0005847,1.9981 0 0 0 0,0.00195 L 8.9429018,9.5140244 7.8645694,6.1347634 C 7.4777981,4.8545194 6.2629922,3.9743159 4.924551,4.0041901 Z"/>
 <path style="opacity:0.2;fill:none;stroke:#000000;stroke-width:2;stroke-linecap:round;stroke-linejoin:round" d="M 5,7.5001837 8.5,18.500183 12,10.499979 15.5,18.500183 19,7.5001837"/>
 <path style="fill:#ffffff" d="M 4.9726562,5.9863281 A 1.0001,1.0001 0 0 0 4.046875,7.3027344 l 3.5,10.9999996 a 1.0001,1.0001 0 0 0 1.8691406,0.09766 L 12,12.494141 l 2.583984,5.90625 a 1.0001,1.0001 0 0 0 1.869141,-0.09766 l 3.5,-10.9999996 A 1.0001,1.0001 0 1 0 18.046875,6.6972656 L 15.351562,15.167969 12.916016,9.5996094 a 1.0001,1.0001 0 0 0 -1.832032,0 L 8.6484375,15.167969 5.953125,6.6972656 A 1.0001,1.0001 0 0 0 4.9726562,5.9863281 Z"/>
 <path style="opacity:0.2;fill:#ffffff" d="M 18.857422 4.0019531 C 18.492112 4.0151618 18.118743 4.0959005 17.75 4.2617188 C 17.012514 4.5933554 16.378464 5.3260774 16.132812 6.1269531 L 15.052734 9.5136719 L 14.746094 8.8125 A 2.0005847 1.9981 0 0 0 14.746094 8.8105469 C 14.252672 7.6859043 13.086901 7.015625 11.998047 7.015625 C 10.909192 7.015625 9.7434219 7.6859054 9.25 8.8105469 A 2.0005847 1.9981 0 0 0 9.25 8.8125 L 8.9433594 9.5136719 L 7.8652344 6.1347656 C 7.4784631 4.8545216 6.2622693 3.974032 4.9238281 4.0039062 L 4.921875 4.0039062 C 3.1690428 4.045195 1.849345 5.6763421 2.0273438 7.3496094 C 2.1307339 5.866656 3.3455099 4.5410382 4.921875 4.5039062 L 4.9238281 4.5039062 C 6.2622693 4.4740321 7.4784631 5.3545216 7.8652344 6.6347656 L 8.9433594 10.013672 L 9.25 9.3125 A 2.0005847 1.9981 0 0 0 9.25 9.3105469 C 9.7434219 8.1859054 10.909192 7.515625 11.998047 7.515625 C 13.086901 7.515625 14.252672 8.1859043 14.746094 9.3105469 A 2.0005847 1.9981 0 0 0 14.746094 9.3125 L 15.052734 10.013672 L 16.132812 6.6269531 C 16.378464 5.8260774 17.012514 5.0933554 17.75 4.7617188 C 18.487487 4.4300822 19.247028 4.4374556 19.912109 4.6484375 C 20.577191 4.8594192 21.200608 5.2904493 21.611328 5.9863281 C 21.816532 6.3340019 21.942451 6.7489885 21.984375 7.1757812 C 22.017874 6.580816 21.896368 5.969267 21.611328 5.4863281 C 21.200608 4.7904493 20.577191 4.3594192 19.912109 4.1484375 C 19.579569 4.0429465 19.222732 3.9887444 18.857422 4.0019531 z"/>
</svg>
